X: 330
T: Tianshan yuge beidouxing
%%abc-version 2.0
%%abcx-abcm2ps-target-version 5.9.1 (29 Sep 2008)
%%abc-creator hum2abc beta
%%abcx-conversion-date 2013/10/02 07:52:30
%%abc-edited-by Helmut Schaffrath
%%humdrum-veritas 2227879129
%%humdrum-veritas-data 376146741
%%continueall 1
%%barnumbers 0
L: 1/8
M: 2/4
K: F
d2c2 [I:setbarnb 1]| 
A2G2 | 
A3=B | 
A4 | 
G Ac2 | 
c AG2 | 
A G F E | 
D2z2 | 
d2A c | 
d2A c | 
d2g e | 
d2d c | 
G2c2 | 
A2A G | 
A G F E | 
D2z2 |]  



